X: 5
T: Dunnottar Castle
T: Air, D
L: 1/16
M: 4/4
K: D
|: A,1D3 F1A3 d3e1 f3e1| d1c1B1A1 G1F1E1D1 C1D1E1D1 C1A,3| A,1D3 F1A3 d3e1 f3e1| d1c1B1A1 B1g1f1e1 f1d1d1c1 d4:| 
a3b1 a1f3 d'3c'1 b1a3| g3f1 e3d1 c1d1e1d1 c1A3| a3b1 a1f3 d'3c'1 b1a3| d'1c'1b1a1 b2c'2 d'4d4:|
d'2d2 c'2d2 b2d2 a2d2| g3f1 e3d1 c1d1e1d1 c1A3|  A,1D3 F1G1A1F1 G2F2 E2e2| d1c1B1A1 B2c2 d4d4||  
D: Ray Ellis, More Like Me!, REC001, 1999
